actions/24/window-new.svg

<?xml version="1.0" encoding="UTF-8" standalone="no"?>
<!-- Created with Inkscape (http://www.inkscape.org/) -->

<svg
   xmlns:svg="http://www.w3.org/2000/svg"
   xmlns="http://www.w3.org/2000/svg"
   xmlns:xlink="http://www.w3.org/1999/xlink"
   version="1.0"
   width="24"
   height="24"
   id="svg4375">
  <defs
     id="defs4377">
    <linearGradient
       id="linearGradient3690">
      <stop
         id="stop3692"
         style="stop-color:white;stop-opacity:1"
         offset="0" />
      <stop
         id="stop3694"
         style="stop-color:white;stop-opacity:0.46875"
         offset="1" />
    </linearGradient>
    <linearGradient
       x1="9.5"
       y1="16.26436"
       x2="9.5"
       y2="13.408723"
       id="linearGradient3200"
       xlink:href="#linearGradient3690"
       gradientUnits="userSpaceOnUse"
       gradientTransform="matrix(0.548387,0,0,0.551724,-1.7096763,0.2586182)" />
    <linearGradient
       id="linearGradient3674">
      <stop
         id="stop3676"
         style="stop-color:#3465a4;stop-opacity:1"
         offset="0" />
      <stop
         id="stop3678"
         style="stop-color:#729fcf;stop-opacity:1"
         offset="1" />
    </linearGradient>
    <linearGradient
       x1="23.069359"
       y1="6.7993021"
       x2="23.069359"
       y2="12.403291"
       id="linearGradient3203"
       xlink:href="#linearGradient3674"
       gradientUnits="userSpaceOnUse"
       gradientTransform="matrix(0.5757569,0,0,0.5806455,-2.3939328,-0.435489)" />
    <linearGradient
       id="linearGradient2781">
      <stop
         id="stop2783"
         style="stop-color:#d3d7cf;stop-opacity:1"
         offset="0" />
      <stop
         id="stop2785"
         style="stop-color:#eeeeec;stop-opacity:1"
         offset="1" />
    </linearGradient>
    <linearGradient
       x1="24.925514"
       y1="40.000107"
       x2="24.925514"
       y2="19.53867"
       id="linearGradient3206"
       xlink:href="#linearGradient2781"
       gradientUnits="userSpaceOnUse"
       gradientTransform="matrix(0.5757569,0,0,0.5806455,-2.3939328,-0.435489)" />
    <radialGradient
       cx="605.71429"
       cy="486.64789"
       r="117.14286"
       fx="605.71429"
       fy="486.64789"
       id="radialGradient3226"
       xlink:href="#linearGradient5060"
       gradientUnits="userSpaceOnUse"
       gradientTransform="matrix(-0.03104752,0,0,0.01366805,23.215356,15.669255)" />
    <linearGradient
       id="linearGradient5060">
      <stop
         id="stop5062"
         style="stop-color:black;stop-opacity:1"
         offset="0" />
      <stop
         id="stop5064"
         style="stop-color:black;stop-opacity:0"
         offset="1" />
    </linearGradient>
    <radialGradient
       cx="605.71429"
       cy="486.64789"
       r="117.14286"
       fx="605.71429"
       fy="486.64789"
       id="radialGradient3224"
       xlink:href="#linearGradient5060"
       gradientUnits="userSpaceOnUse"
       gradientTransform="matrix(0.03104752,0,0,0.01366805,0.7846491,15.669255)" />
    <linearGradient
       id="linearGradient5048">
      <stop
         id="stop5050"
         style="stop-color:black;stop-opacity:0"
         offset="0" />
      <stop
         id="stop5056"
         style="stop-color:black;stop-opacity:1"
         offset="0.5" />
      <stop
         id="stop5052"
         style="stop-color:black;stop-opacity:0"
         offset="1" />
    </linearGradient>
    <linearGradient
       x1="302.85715"
       y1="366.64789"
       x2="302.85715"
       y2="609.50507"
       id="linearGradient3222"
       xlink:href="#linearGradient5048"
       gradientUnits="userSpaceOnUse"
       gradientTransform="matrix(0.03104752,0,0,0.01366805,0.7785389,15.669255)" />
    <linearGradient
       id="linearGradient2264">
      <stop
         id="stop2266"
         style="stop-color:#d7e866;stop-opacity:1"
         offset="0" />
      <stop
         id="stop2268"
         style="stop-color:#8cab2a;stop-opacity:1"
         offset="1" />
    </linearGradient>
    <linearGradient
       x1="24.103895"
       y1="15.168831"
       x2="24.103895"
       y2="32.485161"
       id="linearGradient4381"
       xlink:href="#linearGradient2264"
       gradientUnits="userSpaceOnUse"
       gradientTransform="matrix(0.4691323,0,0,0.4663025,7.7004791,7.808471)" />
    <linearGradient
       id="linearGradient4222">
      <stop
         id="stop4224"
         style="stop-color:white;stop-opacity:1"
         offset="0" />
      <stop
         id="stop4226"
         style="stop-color:white;stop-opacity:0"
         offset="1" />
    </linearGradient>
    <linearGradient
       x1="24.138529"
       y1="8.6973467"
       x2="24.138529"
       y2="47.272728"
       id="linearGradient4378"
       xlink:href="#linearGradient4222"
       gradientUnits="userSpaceOnUse"
       gradientTransform="matrix(0.2817955,0,0,0.2800956,12.196562,12.014894)" />
  </defs>
  <g
     id="layer1">
    <g
       transform="translate(0,-1)"
       id="g9354">
      <g
         transform="matrix(1.0562405,0,0,1.205043,-0.674886,-4.921032)"
         id="g3217">
        <rect
           width="14.991517"
           height="3.3193836"
           x="4.504241"
           y="20.680616"
           id="rect4173"
           style="opacity:0.23613156;fill:url(#linearGradient3222);fill-opacity:1;fill-rule:nonzero;stroke:none;stroke-width:1;marker:none;visibility:visible;display:inline;overflow:visible" />
        <path
           d="m 19.495759,20.680731 c 0,0 0,3.3192 0,3.3192 1.598871,0.0062 3.865291,-0.743664 3.86529,-1.659813 0,-0.91615 -1.784219,-1.659387 -3.86529,-1.659387 z"
           id="path5058"
           style="opacity:0.23613156;fill:url(#radialGradient3224);fill-opacity:1;fill-rule:nonzero;stroke:none;stroke-width:1;marker:none;visibility:visible;display:inline;overflow:visible" />
        <path
           d="m 4.5042417,20.680731 c 0,0 0,3.3192 0,3.3192 -1.5988709,0.0062 -3.8652907,-0.743664 -3.8652907,-1.659813 0,-0.91615 1.784219,-1.659387 3.8652907,-1.659387 z"
           id="path5018"
           style="opacity:0.23613156;fill:url(#radialGradient3226);fill-opacity:1;fill-rule:nonzero;stroke:none;stroke-width:1;marker:none;visibility:visible;display:inline;overflow:visible" />
      </g>
      <rect
         width="18.999998"
         height="17.709679"
         rx="1.1515138"
         ry="1.161291"
         x="2.5000007"
         y="4.7903209"
         id="rect1887"
         style="fill:url(#linearGradient3206);fill-opacity:1;stroke:#888a85;stroke-width:1.00000024;stroke-miterlimit:4;stroke-opacity:1;stroke-dasharray:none" />
      <path
         d="m 2.5000002,7.7111613 0,-2.0498701 c 0,-0.6433553 0.5135752,-1.161291 1.1515138,-1.161291 l 16.69695,0 c 0.637939,0 1.151514,0.5179357 1.151514,1.161291 l 0,2.0498701"
         id="rect2776"
         style="fill:url(#linearGradient3203);fill-opacity:1;stroke:#204a87;stroke-width:1.0000006;stroke-miterlimit:4;stroke-opacity:1" />
      <rect
         width="16.999998"
         height="15.999999"
         rx="0.17766401"
         ry="0.17766401"
         x="3.5000005"
         y="5.5000005"
         id="rect2779"
         style="opacity:0.8;fill:none;stroke:url(#linearGradient3200);stroke-width:1.00000083;stroke-miterlimit:4;stroke-opacity:1;stroke-dasharray:none" />
    </g>
    <path
       d="m 16.5,16.500009 0,-3 4,0 0,3 3,0 0,4 -3,0 0,2.999991 -4,0 0,-2.999991 -2.989465,0 0,-4 2.989465,0 z"
       id="path2262"
       style="fill:url(#linearGradient4381);fill-opacity:1;fill-rule:evenodd;stroke:#699536;stroke-width:1;stroke-linecap:butt;stroke-linejoin:round;stroke-miterlimit:4;stroke-opacity:1;stroke-dasharray:none;display:inline" />
    <path
       d="m 17.5,17.500009 0,-3 2,0 0,3 3,0 0,2 -3,0 0,3 -2,0 0,-3 -3,0 0,-2 3,0 z"
       id="path2272"
       style="opacity:0.4;fill:none;stroke:url(#linearGradient4378);stroke-width:1;stroke-linecap:butt;stroke-linejoin:miter;stroke-miterlimit:4;stroke-opacity:1;stroke-dasharray:none;display:inline" />
  </g>
</svg>

<?xml version="1.0" encoding="UTF-8" standalone="no"?>
<!-- Created with Inkscape (http://www.inkscape.org/) -->
<svg
   xmlns:dc="http://purl.org/dc/elements/1.1/"
   xmlns:cc="http://creativecommons.org/ns#"
   xmlns:rdf="http://www.w3.org/1999/02/22-rdf-syntax-ns#"
   xmlns:svg="http://www.w3.org/2000/svg"
   xmlns="http://www.w3.org/2000/svg"
   xmlns:xlink="http://www.w3.org/1999/xlink"
   xmlns:sodipodi="http://sodipodi.sourceforge.net/DTD/sodipodi-0.dtd"
   xmlns:inkscape="http://www.inkscape.org/namespaces/inkscape"
   width="24"
   height="24"
   id="svg4375"
   sodipodi:version="0.32"
   inkscape:version="0.46"
   version="1.0"
   sodipodi:docname="window-new.svg"
   inkscape:output_extension="org.inkscape.output.svg.inkscape">
  <defs
     id="defs4377">
    <linearGradient
       id="linearGradient3690">
      <stop
         style="stop-color:white;stop-opacity:1;"
         offset="0"
         id="stop3692" />
      <stop
         style="stop-color:white;stop-opacity:0.46875"
         offset="1"
         id="stop3694" />
    </linearGradient>
    <linearGradient
       inkscape:collect="always"
       xlink:href="#linearGradient3690"
       id="linearGradient3200"
       gradientUnits="userSpaceOnUse"
       gradientTransform="matrix(0.548387,0,0,0.551724,-1.7096763,0.2586182)"
       x1="9.5"
       y1="16.26436"
       x2="9.5"
       y2="13.408723" />
    <linearGradient
       id="linearGradient3674">
      <stop
         style="stop-color:#3465a4;stop-opacity:1"
         offset="0"
         id="stop3676" />
      <stop
         style="stop-color:#729fcf;stop-opacity:1;"
         offset="1"
         id="stop3678" />
    </linearGradient>
    <linearGradient
       inkscape:collect="always"
       xlink:href="#linearGradient3674"
       id="linearGradient3203"
       gradientUnits="userSpaceOnUse"
       gradientTransform="matrix(0.5757569,0,0,0.5806455,-2.3939328,-0.435489)"
       x1="23.069359"
       y1="6.7993021"
       x2="23.069359"
       y2="12.403291" />
    <linearGradient
       id="linearGradient2781">
      <stop
         style="stop-color:#d3d7cf;stop-opacity:1"
         offset="0"
         id="stop2783" />
      <stop
         style="stop-color:#eeeeec;stop-opacity:1"
         offset="1"
         id="stop2785" />
    </linearGradient>
    <linearGradient
       inkscape:collect="always"
       xlink:href="#linearGradient2781"
       id="linearGradient3206"
       gradientUnits="userSpaceOnUse"
       gradientTransform="matrix(0.5757569,0,0,0.5806455,-2.3939328,-0.435489)"
       x1="24.925514"
       y1="40.000107"
       x2="24.925514"
       y2="19.53867" />
    <radialGradient
       inkscape:collect="always"
       xlink:href="#linearGradient5060"
       id="radialGradient3226"
       gradientUnits="userSpaceOnUse"
       gradientTransform="matrix(-3.1047521e-2,0,0,1.366805e-2,23.215356,15.669255)"
       cx="605.71429"
       cy="486.64789"
       fx="605.71429"
       fy="486.64789"
       r="117.14286" />
    <linearGradient
       id="linearGradient5060"
       inkscape:collect="always">
      <stop
         id="stop5062"
         offset="0"
         style="stop-color:black;stop-opacity:1;" />
      <stop
         id="stop5064"
         offset="1"
         style="stop-color:black;stop-opacity:0;" />
    </linearGradient>
    <radialGradient
       inkscape:collect="always"
       xlink:href="#linearGradient5060"
       id="radialGradient3224"
       gradientUnits="userSpaceOnUse"
       gradientTransform="matrix(3.1047521e-2,0,0,1.366805e-2,0.7846491,15.669255)"
       cx="605.71429"
       cy="486.64789"
       fx="605.71429"
       fy="486.64789"
       r="117.14286" />
    <linearGradient
       id="linearGradient5048">
      <stop
         id="stop5050"
         offset="0"
         style="stop-color:black;stop-opacity:0;" />
      <stop
         style="stop-color:black;stop-opacity:1;"
         offset="0.5"
         id="stop5056" />
      <stop
         id="stop5052"
         offset="1"
         style="stop-color:black;stop-opacity:0;" />
    </linearGradient>
    <linearGradient
       inkscape:collect="always"
       xlink:href="#linearGradient5048"
       id="linearGradient3222"
       gradientUnits="userSpaceOnUse"
       gradientTransform="matrix(3.1047521e-2,0,0,1.366805e-2,0.7785389,15.669255)"
       x1="302.85715"
       y1="366.64789"
       x2="302.85715"
       y2="609.50507" />
    <linearGradient
       id="linearGradient2264">
      <stop
         id="stop2266"
         offset="0"
         style="stop-color:#d7e866;stop-opacity:1;" />
      <stop
         id="stop2268"
         offset="1"
         style="stop-color:#8cab2a;stop-opacity:1;" />
    </linearGradient>
    <linearGradient
       inkscape:collect="always"
       xlink:href="#linearGradient2264"
       id="linearGradient4381"
       gradientUnits="userSpaceOnUse"
       gradientTransform="matrix(0.4691323,0,0,0.4663025,7.7004791,7.808471)"
       x1="24.103895"
       y1="15.168831"
       x2="24.103895"
       y2="32.485161" />
    <linearGradient
       id="linearGradient4222"
       inkscape:collect="always">
      <stop
         id="stop4224"
         offset="0"
         style="stop-color:#ffffff;stop-opacity:1;" />
      <stop
         id="stop4226"
         offset="1"
         style="stop-color:#ffffff;stop-opacity:0;" />
    </linearGradient>
    <linearGradient
       inkscape:collect="always"
       xlink:href="#linearGradient4222"
       id="linearGradient4378"
       gradientUnits="userSpaceOnUse"
       gradientTransform="matrix(0.2817955,0,0,0.2800956,12.196562,12.014894)"
       x1="24.138529"
       y1="8.6973467"
       x2="24.138529"
       y2="47.272728" />
  </defs>
  <sodipodi:namedview
     id="base"
     pagecolor="#ffffff"
     bordercolor="#666666"
     borderopacity="1.0"
     inkscape:pageopacity="0.0"
     inkscape:pageshadow="2"
     inkscape:zoom="11.197802"
     inkscape:cx="16"
     inkscape:cy="16"
     inkscape:current-layer="layer1"
     showgrid="true"
     inkscape:grid-bbox="true"
     inkscape:document-units="px"
     inkscape:window-width="640"
     inkscape:window-height="720"
     inkscape:window-x="800"
     inkscape:window-y="88" />
  <metadata
     id="metadata4380">
    <rdf:RDF>
      <cc:Work
         rdf:about="">
        <dc:format>image/svg+xml</dc:format>
        <dc:type
           rdf:resource="http://purl.org/dc/dcmitype/StillImage" />
      </cc:Work>
    </rdf:RDF>
  </metadata>
  <g
     id="layer1"
     inkscape:label="Layer 1"
     inkscape:groupmode="layer">
    <g
       id="g9354"
       transform="translate(0,-1)">
      <g
         transform="matrix(1.0562405,0,0,1.205043,-0.674886,-4.921032)"
         id="g3217">
        <rect
           style="opacity:0.23613156;fill:url(#linearGradient3222);fill-opacity:1;fill-rule:nonzero;stroke:none;stroke-width:1;stroke-linecap:round;stroke-linejoin:miter;marker:none;marker-start:none;marker-mid:none;marker-end:none;stroke-miterlimit:4;stroke-dasharray:none;stroke-dashoffset:0;stroke-opacity:1;visibility:visible;display:inline;overflow:visible"
           id="rect4173"
           width="14.991517"
           height="3.3193836"
           x="4.504241"
           y="20.680616" />
        <path
           style="opacity:0.23613156;fill:url(#radialGradient3224);fill-opacity:1;fill-rule:nonzero;stroke:none;stroke-width:1;stroke-linecap:round;stroke-linejoin:miter;marker:none;marker-start:none;marker-mid:none;marker-end:none;stroke-miterlimit:4;stroke-dasharray:none;stroke-dashoffset:0;stroke-opacity:1;visibility:visible;display:inline;overflow:visible"
           d="M 19.495759,20.680731 C 19.495759,20.680731 19.495759,23.999931 19.495759,23.999931 C 21.09463,24.00618 23.36105,23.256267 23.361049,22.340118 C 23.361049,21.423968 21.57683,20.680731 19.495759,20.680731 z"
           id="path5058"
           sodipodi:nodetypes="cccc" />
        <path
           sodipodi:nodetypes="cccc"
           id="path5018"
           d="M 4.5042417,20.680731 C 4.5042417,20.680731 4.5042417,23.999931 4.5042417,23.999931 C 2.9053708,24.00618 0.638951,23.256267 0.638951,22.340118 C 0.638951,21.423968 2.42317,20.680731 4.5042417,20.680731 z"
           style="opacity:0.23613156;fill:url(#radialGradient3226);fill-opacity:1;fill-rule:nonzero;stroke:none;stroke-width:1;stroke-linecap:round;stroke-linejoin:miter;marker:none;marker-start:none;marker-mid:none;marker-end:none;stroke-miterlimit:4;stroke-dasharray:none;stroke-dashoffset:0;stroke-opacity:1;visibility:visible;display:inline;overflow:visible" />
      </g>
      <rect
         ry="1.161291"
         rx="1.1515138"
         y="4.7903209"
         x="2.5000007"
         height="17.709679"
         width="18.999998"
         id="rect1887"
         style="fill:url(#linearGradient3206);fill-opacity:1;stroke:#888a85;stroke-width:1.00000024;stroke-miterlimit:4;stroke-dasharray:none;stroke-opacity:1" />
      <path
         sodipodi:nodetypes="cccccc"
         id="rect2776"
         d="M 2.5000002,7.7111613 L 2.5000002,5.6612912 C 2.5000002,5.0179359 3.0135754,4.5000002 3.651514,4.5000002 L 20.348464,4.5000002 C 20.986403,4.5000002 21.499978,5.0179359 21.499978,5.6612912 L 21.499978,7.7111613"
         style="fill:url(#linearGradient3203);fill-opacity:1;stroke:#204a87;stroke-width:1.0000006;stroke-miterlimit:4;stroke-opacity:1" />
      <rect
         ry="0.17766401"
         rx="0.17766401"
         y="5.5000005"
         x="3.5000005"
         height="15.999999"
         width="16.999998"
         id="rect2779"
         style="opacity:0.8;fill:none;fill-opacity:1;stroke:url(#linearGradient3200);stroke-width:1.00000083;stroke-miterlimit:4;stroke-dasharray:none;stroke-opacity:1" />
    </g>
    <path
       style="fill:url(#linearGradient4381);fill-opacity:1;fill-rule:evenodd;stroke:#699536;stroke-width:1;stroke-linecap:butt;stroke-linejoin:round;stroke-miterlimit:4;stroke-dasharray:none;stroke-opacity:1;display:inline"
       d="M 16.5,16.500009 L 16.5,13.500009 L 20.5,13.500009 L 20.5,16.500009 L 23.5,16.500009 L 23.5,20.500009 L 20.5,20.500009 L 20.5,23.5 L 16.5,23.5 L 16.5,20.500009 L 13.510535,20.500009 L 13.510535,16.500009 L 16.5,16.500009 z"
       id="path2262"
       sodipodi:nodetypes="ccccccccccccc" />
    <path
       style="fill:none;fill-opacity:1;fill-rule:evenodd;stroke:url(#linearGradient4378);stroke-width:1;stroke-linecap:butt;stroke-linejoin:miter;stroke-miterlimit:4;stroke-dasharray:none;stroke-opacity:1;display:inline;opacity:0.40000000000000002"
       d="M 17.5,17.500009 L 17.5,14.500009 L 19.5,14.500009 L 19.5,17.500009 L 22.5,17.500009 L 22.5,19.500009 L 19.5,19.500009 L 19.5,22.500009 L 17.5,22.500009 L 17.5,19.500009 L 14.5,19.500009 L 14.5,17.500009 L 17.5,17.500009 z"
       id="path2272"
       sodipodi:nodetypes="ccccccccccccc" />
  </g>
</svg>
